; G-Code generated by Simplify3D(R) Version 3.1.0
; Oct 9, 2016 at 12:42:07 PM
; Settings Summary
;   processName,Process1a_raft
;   applyToModels,coderdojo_cutter_1_1
;   profileName,Process1a_raft (modified)
;   profileVersion,2016-03-21 18:57:38
;   baseProfile,PLA_Blue_Strong (modified)
;   printMaterial,
;   printQuality,
;   printExtruders,
;   extruderName,Extruder 1
;   extruderToolheadNumber,0
;   extruderDiameter,0.4
;   extruderAutoWidth,0
;   extruderWidth,0.4
;   extrusionMultiplier,0.9
;   extruderUseRetract,1
;   extruderRetractionDistance,1
;   extruderExtraRestartDistance,0
;   extruderRetractionZLift,0
;   extruderRetractionSpeed,1800
;   extruderUseCoasting,0
;   extruderCoastingDistance,0.2
;   extruderUseWipe,0
;   extruderWipeDistance,5
;   primaryExtruder,0
;   layerHeight,0.2
;   topSolidLayers,5
;   bottomSolidLayers,5
;   perimeterOutlines,5
;   printPerimetersInsideOut,1
;   startPointOption,1
;   startPointOriginX,0
;   startPointOriginY,0
;   startPointOriginZ,300
;   sequentialIslands,0
;   spiralVaseMode,0
;   firstLayerHeightPercentage,80
;   firstLayerWidthPercentage,100
;   firstLayerUnderspeed,0.5
;   useRaft,1
;   raftExtruder,0
;   raftLayers,3
;   raftOffset,3
;   raftSeparationDistance,0.14
;   raftInfill,85
;   disableRaftBaseLayers,0
;   useSkirt,1
;   skirtExtruder,0
;   skirtLayers,1
;   skirtOutlines,4
;   skirtOffset,2.4
;   usePrimePillar,0
;   primePillarExtruder,999
;   primePillarWidth,12
;   primePillarLocation,7
;   primePillarSpeedMultiplier,1
;   useOozeShield,0
;   oozeShieldExtruder,999
;   oozeShieldOffset,2
;   oozeShieldOutlines,1
;   oozeShieldSidewallShape,1
;   oozeShieldSidewallAngle,30
;   oozeShieldSpeedMultiplier,1
;   infillExtruder,0
;   internalInfillPattern,Rectilinear
;   externalInfillPattern,Rectilinear
;   infillPercentage,15
;   outlineOverlapPercentage,20
;   infillExtrusionWidthPercentage,100
;   minInfillLength,5
;   infillLayerInterval,1
;   infillAngles,45,-45
;   overlapInfillAngles,0
;   generateSupport,1
;   supportExtruder,0
;   supportInfillPercentage,30
;   supportExtraInflation,0
;   denseSupportLayers,0
;   denseSupportInfillPercentage,70
;   supportLayerInterval,1
;   supportHorizontalPartOffset,0.3
;   supportUpperSeparationLayers,1
;   supportLowerSeparationLayers,1
;   supportType,0
;   supportGridSpacing,2
;   maxOverhangAngle,45
;   supportAngles,0
;   temperatureName,Extruder 1 Temperature,Heated Bed
;   temperatureNumber,0,0
;   temperatureSetpointCount,2,2
;   temperatureSetpointLayers,1,2,1,2
;   temperatureSetpointTemperatures,200,190,60,55
;   temperatureStabilizeAtStartup,1,1
;   temperatureHeatedBed,0,1
;   temperatureRelayBetweenLayers,0,0
;   temperatureRelayBetweenLoops,0,0
;   fanLayers,1,10
;   fanSpeeds,0,50
;   blipFanToFullPower,1
;   adjustSpeedForCooling,1
;   minSpeedLayerTime,15
;   minCoolingSpeedSlowdown,20
;   increaseFanForCooling,1
;   minFanLayerTime,30
;   maxCoolingFanSpeed,100
;   increaseFanForBridging,1
;   bridgingFanSpeed,100
;   use5D,1
;   relativeEdistances,0
;   allowEaxisZeroing,1
;   independentExtruderAxes,0
;   includeM10123,0
;   stickySupport,1
;   applyToolheadOffsets,0
;   gcodeXoffset,0
;   gcodeYoffset,0
;   gcodeZoffset,0
;   overrideMachineDefinition,0
;   machineTypeOverride,0
;   strokeXoverride,185
;   strokeYoverride,100
;   strokeZoverride,165
;   originOffsetXoverride,0
;   originOffsetYoverride,0
;   originOffsetZoverride,0
;   homeXdirOverride,-1
;   homeYdirOverride,-1
;   homeZdirOverride,-1
;   flipXoverride,1
;   flipYoverride,-1
;   flipZoverride,1
;   toolheadOffsets,0,0|0,0|0,0|0,0|0,0|0,0
;   overrideFirmwareConfiguration,0
;   firmwareTypeOverride,RepRap (Marlin/Repetier/Sprinter)
;   GPXconfigOverride,r2
;   baudRateOverride,115200
;   overridePrinterModels,0
;   printerModelsOverride
;   startingGcode,G28 ; home all axes,
;   layerChangeGcode,
;   retractionGcode,
;   toolChangeGcode,
;   endingGcode,G92 E0,G1 E-2,M104 S0 ; turn off extruder,M140 S0 ; turn off bed,G91,G1 F150,G1 Z10,G90,M84 ; disable motors
;   exportFileFormat,gcode
;   celebration,0
;   celebrationSong,Random Song
;   postProcessing,
;   defaultSpeed,3600
;   outlineUnderspeed,0.5
;   solidInfillUnderspeed,0.8
;   supportUnderspeed,0.8
;   rapidXYspeed,4800
;   rapidZspeed,1000
;   minBridgingArea,50
;   bridgingExtraInflation,0
;   bridgingExtrusionMultiplier,1
;   bridgingSpeedMultiplier,1
;   filamentDiameter,1.75
;   filamentPricePerKg,46
;   filamentDensity,1.25
;   useMinPrintHeight,0
;   minPrintHeight,0
;   useMaxPrintHeight,0
;   maxPrintHeight,0
;   useDiaphragm,0
;   diaphragmLayerInterval,20
;   robustSlicing,1
;   mergeAllIntoSolid,0
;   onlyRetractWhenCrossingOutline,1
;   retractBetweenLayers,1
;   useRetractionMinTravel,0
;   retractionMinTravel,3
;   retractWhileWiping,0
;   onlyWipeOutlines,1
;   avoidCrossingOutline,0
;   maxMovementDetourFactor,3
;   toolChangeRetractionDistance,12
;   toolChangeExtraRestartDistance,-0.5
;   toolChangeRetractionSpeed,600
;   allowThinWallGapFill,1
;   thinWallAllowedOverlapPercentage,10
;   horizontalSizeCompensation,0
G90
M82
M106 S0
M140 S60
M190 S60
M104 S200 T0
M109 S200 T0
G28 ; home all axes
G92 E0
G1 E-1.0000 F1800
G1 Z0.400 F1000
; layer 1, Z = 0.4
T0
; tool H0.500 W0.400
; skirt
G1 X38.725 Y59.653 F4800
G1 E0.0000 F540
G92 E0
G1 X38.791 Y59.616 E0.0057 F1800
G1 X38.806 Y59.607 E0.0070
G1 X39.090 Y59.456 E0.0311
G1 X39.105 Y59.448 E0.0324
G1 X39.173 Y59.414 E0.0380
G1 X39.189 Y59.406 E0.0393
G1 X42.652 Y57.768 E0.3260
G1 X42.667 Y57.761 E0.3273
G1 X42.737 Y57.730 E0.3330
G1 X42.753 Y57.724 E0.3343
G1 X43.050 Y57.601 E0.3583
G1 X43.066 Y57.594 E0.3596
G1 X43.137 Y57.567 E0.3653
G1 X43.153 Y57.561 E0.3666
G1 X46.760 Y56.270 E0.6533
G1 X46.776 Y56.265 E0.6546
G1 X46.848 Y56.241 E0.6603
G1 X46.865 Y56.236 E0.6616
G1 X47.172 Y56.142 E0.6856
G1 X47.189 Y56.137 E0.6869
G1 X47.262 Y56.117 E0.6926
G1 X47.279 Y56.113 E0.6939
G1 X50.995 Y55.182 E0.9806
G1 X51.012 Y55.178 E0.9818
G1 X51.086 Y55.161 E0.9875
G1 X51.103 Y55.158 E0.9888
G1 X51.418 Y55.095 E1.0129
G1 X51.435 Y55.092 E1.0142
G1 X51.510 Y55.079 E1.0199
G1 X51.527 Y55.076 E1.0212
G1 X55.316 Y54.514 E1.3079
G1 X55.333 Y54.512 E1.3091
G1 X55.409 Y54.502 E1.3148
G1 X55.426 Y54.500 E1.3161
G1 X55.746 Y54.469 E1.3402
G1 X55.763 Y54.467 E1.3415
G1 X55.839 Y54.462 E1.3472
G1 X55.856 Y54.461 E1.3485
G1 X59.682 Y54.273 E1.6351
G1 X59.699 Y54.272 E1.6364
G1 X59.776 Y54.270 E1.6421
G1 X59.793 Y54.270 E1.6434
G1 X60.114 Y54.270 E1.6675
G1 X60.132 Y54.270 E1.6688
G1 X60.208 Y54.272 E1.6745
G1 X60.225 Y54.273 E1.6757
G1 X64.051 Y54.461 E1.9624
G1 X64.068 Y54.462 E1.9637
G1 X64.144 Y54.467 E1.9694
G1 X64.161 Y54.469 E1.9707
G1 X64.481 Y54.500 E1.9947
G1 X64.498 Y54.502 E1.9960
G1 X64.574 Y54.512 E2.0017
G1 X64.591 Y54.514 E2.0030
G1 X68.346 Y55.071 E2.2871
G1 X68.359 Y55.073 E2.2881
G1 X68.418 Y55.083 E2.2926
G1 X68.432 Y55.085 E2.2936
G1 X68.680 Y55.132 E2.3125
G1 X68.693 Y55.135 E2.3135
G1 X68.752 Y55.147 E2.3180
G1 X68.765 Y55.150 E2.3190
G1 X69.937 Y55.417 E2.4090
G1 X69.940 Y55.418 E2.4092
G1 X69.956 Y55.422 E2.4105
G1 X69.960 Y55.423 E2.4107
G1 X70.027 Y55.439 E2.4159
G1 X70.031 Y55.440 E2.4162
G1 X70.047 Y55.444 E2.4174
G1 X70.050 Y55.444 E2.4177
G1 X73.644 Y56.344 E2.6949
G1 X73.660 Y56.349 E2.6962
G1 X73.734 Y56.369 E2.7019
G1 X73.750 Y56.374 E2.7032
G1 X74.058 Y56.467 E2.7272
G1 X74.074 Y56.472 E2.7285
G1 X74.147 Y56.496 E2.7342
G1 X74.163 Y56.502 E2.7355
G1 X77.770 Y57.792 E3.0222
G1 X77.786 Y57.798 E3.0235
G1 X77.857 Y57.826 E3.0292
G1 X77.873 Y57.832 E3.0305
G1 X78.170 Y57.955 E3.0545
G1 X78.186 Y57.962 E3.0558
G1 X78.255 Y57.993 E3.0615
G1 X78.271 Y58.000 E3.0628
G1 X81.734 Y59.638 E3.3495
G1 X81.749 Y59.645 E3.3507
G1 X81.817 Y59.680 E3.3564
G1 X81.832 Y59.688 E3.3577
G1 X82.116 Y59.839 E3.3818
G1 X82.131 Y59.847 E3.3831
G1 X82.197 Y59.885 E3.3888
G1 X82.212 Y59.894 E3.3900
G1 X85.498 Y61.863 E3.6767
G1 X85.513 Y61.872 E3.6780
G1 X85.577 Y61.913 E3.6837
G1 X85.591 Y61.922 E3.6850
G1 X85.859 Y62.101 E3.7091
G1 X85.873 Y62.111 E3.7104
G1 X85.935 Y62.154 E3.7161
G1 X85.949 Y62.164 E3.7173
G1 X89.026 Y64.447 E4.0040
G1 X89.040 Y64.457 E4.0053
G1 X89.100 Y64.504 E4.0110
G1 X89.113 Y64.514 E4.0123
G1 X89.362 Y64.719 E4.0364
G1 X89.375 Y64.730 E4.0377
G1 X89.433 Y64.779 E4.0434
G1 X89.445 Y64.791 E4.0446
G1 X92.284 Y67.363 E4.3313
G1 X92.296 Y67.375 E4.3326
G1 X92.352 Y67.428 E4.3383
G1 X92.364 Y67.440 E4.3396
G1 X92.591 Y67.667 E4.3637
G1 X92.603 Y67.679 E4.3649
G1 X92.656 Y67.734 E4.3706
G1 X92.667 Y67.747 E4.3719
G1 X95.240 Y70.585 E4.6586
G1 X95.251 Y70.598 E4.6599
G1 X95.301 Y70.656 E4.6656
G1 X95.312 Y70.669 E4.6669
G1 X95.516 Y70.917 E4.6909
G1 X95.527 Y70.931 E4.6922
G1 X95.574 Y70.991 E4.6979
G1 X95.584 Y71.004 E4.6992
G1 X97.866 Y74.082 E4.9859
G1 X97.876 Y74.095 E4.9872
G1 X97.920 Y74.158 E4.9929
G1 X97.930 Y74.172 E4.9941
G1 X98.108 Y74.439 E5.0182
G1 X98.118 Y74.454 E5.0195
G1 X98.159 Y74.518 E5.0252
G1 X98.168 Y74.533 E5.0265
G1 X98.341 Y74.822 E5.0517
G1 X98.743 Y74.150 E5.1103
G1 X98.752 Y74.135 E5.1116
G1 X98.793 Y74.071 E5.1173
G1 X98.802 Y74.057 E5.1186
G1 X98.981 Y73.789 E5.1426
G1 X98.991 Y73.775 E5.1439
G1 X99.035 Y73.713 E5.1496
G1 X99.045 Y73.699 E5.1509
G1 X101.411 Y70.509 E5.4482
G1 X101.421 Y70.495 E5.4494
G1 X101.468 Y70.435 E5.4551
G1 X101.479 Y70.422 E5.4564
G1 X101.683 Y70.173 E5.4805
G1 X101.694 Y70.160 E5.4818
G1 X101.744 Y70.102 E5.4875
G1 X101.755 Y70.089 E5.4888
G1 X104.423 Y67.146 E5.7860
G1 X104.434 Y67.134 E5.7873
G1 X104.487 Y67.078 E5.7930
G1 X104.499 Y67.066 E5.7943
G1 X104.726 Y66.839 E5.8184
G1 X104.738 Y66.827 E5.8196
G1 X104.794 Y66.774 E5.8253
G1 X104.806 Y66.763 E5.8266
G1 X107.707 Y64.134 E6.1196
G1 X107.715 Y64.126 E6.1204
G1 X107.752 Y64.094 E6.1241
G1 X107.760 Y64.087 E6.1249
G1 X107.917 Y63.953 E6.1403
G1 X107.926 Y63.946 E6.1412
G1 X107.964 Y63.915 E6.1448
G1 X107.972 Y63.908 E6.1456
G1 X108.912 Y63.158 E6.2356
G1 X108.917 Y63.155 E6.2361
G1 X108.938 Y63.138 E6.2381
G1 X108.943 Y63.134 E6.2386
G1 X109.034 Y63.064 E6.2472
G1 X109.039 Y63.060 E6.2476
G1 X109.061 Y63.044 E6.2497
G1 X109.066 Y63.040 E6.2501
G1 X112.173 Y60.735 E6.5397
G1 X112.187 Y60.725 E6.5410
G1 X112.250 Y60.681 E6.5467
G1 X112.264 Y60.672 E6.5479
G1 X112.531 Y60.493 E6.5720
G1 X112.545 Y60.484 E6.5733
G1 X112.610 Y60.443 E6.5790
G1 X112.624 Y60.434 E6.5803
G1 X116.031 Y58.392 E6.8775
G1 X116.046 Y58.383 E6.8788
G1 X116.112 Y58.346 E6.8845
G1 X116.127 Y58.337 E6.8858
G1 X116.411 Y58.186 E6.9099
G1 X116.426 Y58.178 E6.9111
G1 X116.494 Y58.144 E6.9168
G1 X116.510 Y58.136 E6.9181
G1 X120.101 Y56.438 E7.2154
G1 X120.116 Y56.431 E7.2167
G1 X120.186 Y56.400 E7.2224
G1 X120.202 Y56.393 E7.2237
G1 X120.499 Y56.270 E7.2477
G1 X120.515 Y56.264 E7.2490
G1 X120.586 Y56.236 E7.2547
G1 X120.602 Y56.230 E7.2560
G1 X124.342 Y54.892 E7.5532
G1 X124.358 Y54.887 E7.5545
G1 X124.430 Y54.863 E7.5602
G1 X124.447 Y54.858 E7.5615
G1 X124.754 Y54.764 E7.5856
G1 X124.771 Y54.759 E7.5869
G1 X124.844 Y54.739 E7.5926
G1 X124.861 Y54.735 E7.5938
G1 X128.714 Y53.770 E7.8911
G1 X128.731 Y53.766 E7.8924
G1 X128.805 Y53.749 E7.8981
G1 X128.822 Y53.745 E7.8994
G1 X129.137 Y53.683 E7.9234
G1 X129.154 Y53.679 E7.9247
G1 X129.229 Y53.666 E7.9304
G1 X129.246 Y53.664 E7.9317
G1 X133.175 Y53.081 E8.2289
G1 X133.192 Y53.079 E8.2302
G1 X133.268 Y53.069 E8.2359
G1 X133.285 Y53.067 E8.2372
G1 X133.605 Y53.036 E8.2613
G1 X133.622 Y53.034 E8.2626
G1 X133.698 Y53.029 E8.2683
G1 X133.715 Y53.028 E8.2696
G1 X137.682 Y52.833 E8.5668
G1 X137.700 Y52.832 E8.5681
G1 X137.776 Y52.830 E8.5738
G1 X137.793 Y52.830 E8.5751
G1 X138.114 Y52.830 E8.5991
G1 X138.132 Y52.830 E8.6004
G1 X138.208 Y52.832 E8.6061
G1 X138.225 Y52.833 E8.6074
G1 X142.192 Y53.028 E8.9047
G1 X142.209 Y53.029 E8.9059
G1 X142.285 Y53.034 E8.9116
G1 X142.302 Y53.036 E8.9129
G1 X142.622 Y53.067 E8.9370
G1 X142.640 Y53.069 E8.9383
G1 X142.715 Y53.079 E8.9440
G1 X142.732 Y53.081 E8.9453
G1 X146.627 Y53.659 E9.2399
G1 X146.641 Y53.661 E9.2410
G1 X146.699 Y53.671 E9.2454
G1 X146.713 Y53.673 E9.2464
G1 X146.961 Y53.720 E9.2653
G1 X146.974 Y53.722 E9.2663
G1 X147.033 Y53.735 E9.2708
G1 X147.046 Y53.737 E9.2718
G1 X148.218 Y54.005 E9.3618
G1 X148.221 Y54.006 E9.3620
G1 X148.237 Y54.009 E9.3633
G1 X148.241 Y54.010 E9.3635
G1 X148.308 Y54.026 E9.3687
G1 X148.311 Y54.027 E9.3690
G1 X148.327 Y54.031 E9.3702
G1 X148.331 Y54.032 E9.3705
G1 X152.062 Y54.966 E9.6583
G1 X152.078 Y54.971 E9.6596
G1 X152.151 Y54.991 E9.6653
G1 X152.168 Y54.996 E9.6666
G1 X152.476 Y55.089 E9.6906
G1 X152.492 Y55.094 E9.6919
G1 X152.565 Y55.118 E9.6976
G1 X152.581 Y55.124 E9.6989
G1 X156.321 Y56.462 E9.9962
G1 X156.337 Y56.468 E9.9975
G1 X156.408 Y56.495 E10.0031
G1 X156.424 Y56.502 E10.0044
G1 X156.721 Y56.625 E10.0285
G1 X156.737 Y56.632 E10.0298
G1 X156.806 Y56.663 E10.0355
G1 X156.822 Y56.670 E10.0368
G1 X160.413 Y58.368 E10.3340
G1 X160.428 Y58.376 E10.3353
G1 X160.496 Y58.410 E10.3410
G1 X160.511 Y58.418 E10.3423
G1 X160.795 Y58.569 E10.3663
G1 X160.810 Y58.577 E10.3676
G1 X160.876 Y58.615 E10.3733
G1 X160.891 Y58.624 E10.3746
G1 X164.298 Y60.666 E10.6719
G1 X164.313 Y60.675 E10.6732
G1 X164.377 Y60.715 E10.6789
G1 X164.391 Y60.725 E10.6801
G1 X164.659 Y60.904 E10.7042
G1 X164.673 Y60.913 E10.7055
G1 X164.735 Y60.957 E10.7112
G1 X164.749 Y60.967 E10.7125
G1 X167.940 Y63.333 E11.0097
G1 X167.953 Y63.344 E11.0110
G1 X168.013 Y63.391 E11.0167
G1 X168.027 Y63.401 E11.0180
G1 X168.275 Y63.605 E11.0421
G1 X168.289 Y63.617 E11.0434
G1 X168.346 Y63.666 E11.0491
G1 X168.359 Y63.677 E11.0503
G1 X171.302 Y66.345 E11.3476
G1 X171.315 Y66.357 E11.3489
G1 X171.370 Y66.409 E11.3546
G1 X171.382 Y66.421 E11.3559
G1 X171.609 Y66.649 E11.3799
G1 X171.621 Y66.661 E11.3812
G1 X171.674 Y66.716 E11.3869
G1 X171.686 Y66.729 E11.3882
G1 X174.353 Y69.672 E11.6855
G1 X174.365 Y69.685 E11.6867
G1 X174.414 Y69.742 E11.6924
G1 X174.425 Y69.755 E11.6937
G1 X174.629 Y70.004 E11.7178
G1 X174.640 Y70.017 E11.7191
G1 X174.687 Y70.077 E11.7248
G1 X174.697 Y70.091 E11.7260
G1 X177.063 Y73.282 E12.0233
G1 X177.074 Y73.295 E12.0246
G1 X177.117 Y73.358 E12.0303
G1 X177.127 Y73.372 E12.0316
G1 X177.306 Y73.639 E12.0556
G1 X177.315 Y73.654 E12.0569
G1 X177.356 Y73.718 E12.0626
G1 X177.365 Y73.733 E12.0639
G1 X179.406 Y77.137 E12.3610
G1 X179.414 Y77.152 E12.3622
G1 X179.451 Y77.217 E12.3679
G1 X179.459 Y77.232 E12.3691
G1 X179.609 Y77.511 E12.3928
G1 X179.617 Y77.526 E12.3941
G1 X179.650 Y77.593 E12.3997
G1 X179.658 Y77.608 E12.4009
G1 X181.808 Y82.137 E12.7761
G1 X181.815 Y82.153 E12.7774
G1 X181.847 Y82.223 E12.7832
G1 X181.854 Y82.240 E12.7845
G1 X181.979 Y82.541 E12.8090
G1 X181.986 Y82.557 E12.8103
G1 X182.013 Y82.629 E12.8161
G1 X182.019 Y82.646 E12.8174
G1 X183.359 Y86.388 E13.1148
G1 X183.364 Y86.404 E13.1161
G1 X183.388 Y86.477 E13.1218
G1 X183.393 Y86.493 E13.1231
G1 X183.487 Y86.801 E13.1471
G1 X183.491 Y86.817 E13.1484
G1 X183.512 Y86.891 E13.1541
G1 X183.516 Y86.907 E13.1554
G1 X184.481 Y90.760 E13.4527
G1 X184.485 Y90.777 E13.4540
G1 X184.502 Y90.851 E13.4596
G1 X184.505 Y90.868 E13.4609
G1 X184.568 Y91.183 E13.4850
G1 X184.571 Y91.200 E13.4863
G1 X184.584 Y91.275 E13.4920
G1 X184.587 Y91.292 E13.4933
G1 X185.170 Y95.222 E13.7905
G1 X185.172 Y95.239 E13.7918
G1 X185.181 Y95.314 E13.7975
G1 X185.183 Y95.331 E13.7988
G1 X185.215 Y95.651 E13.8229
G1 X185.216 Y95.668 E13.8241
G1 X185.222 Y95.744 E13.8298
G1 X185.223 Y95.761 E13.8311
G1 X185.418 Y99.729 E14.1284
G1 X185.419 Y99.746 E14.1297
G1 X185.420 Y99.822 E14.1354
G1 X185.421 Y99.839 E14.1367
G1 X185.421 Y100.161 E14.1607
G1 X185.420 Y100.178 E14.1620
G1 X185.419 Y100.254 E14.1677
G1 X185.418 Y100.271 E14.1690
G1 X185.223 Y104.239 E14.4662
G1 X185.222 Y104.256 E14.4675
G1 X185.216 Y104.332 E14.4732
G1 X185.215 Y104.349 E14.4745
G1 X185.183 Y104.669 E14.4986
G1 X185.181 Y104.686 E14.4999
G1 X185.172 Y104.761 E14.5056
G1 X185.170 Y104.778 E14.5068
G1 X184.587 Y108.708 E14.8041
G1 X184.584 Y108.725 E14.8054
G1 X184.571 Y108.800 E14.8111
G1 X184.568 Y108.817 E14.8124
G1 X184.505 Y109.132 E14.8364
G1 X184.502 Y109.149 E14.8377
