; G-Code generated by Simplify3D(R) Version 3.1.0
; Oct 8, 2016 at 5:27:34 PM
; Settings Summary
;   processName,Process1a
;   applyToModels,coderdojo_cookie_cutter_1_0
;   profileName,PLA_Blue_Strong (modified)
;   profileVersion,2016-03-21 18:57:38
;   baseProfile,
;   printMaterial,
;   printQuality,
;   printExtruders,
;   extruderName,Extruder 1
;   extruderToolheadNumber,0
;   extruderDiameter,0.4
;   extruderAutoWidth,0
;   extruderWidth,0.4
;   extrusionMultiplier,0.9
;   extruderUseRetract,1
;   extruderRetractionDistance,1
;   extruderExtraRestartDistance,0
;   extruderRetractionZLift,0
;   extruderRetractionSpeed,1800
;   extruderUseCoasting,0
;   extruderCoastingDistance,0.2
;   extruderUseWipe,0
;   extruderWipeDistance,5
;   primaryExtruder,0
;   layerHeight,0.2
;   topSolidLayers,5
;   bottomSolidLayers,5
;   perimeterOutlines,5
;   printPerimetersInsideOut,1
;   startPointOption,1
;   startPointOriginX,0
;   startPointOriginY,0
;   startPointOriginZ,300
;   sequentialIslands,0
;   spiralVaseMode,0
;   firstLayerHeightPercentage,80
;   firstLayerWidthPercentage,100
;   firstLayerUnderspeed,0.5
;   useRaft,0
;   raftExtruder,0
;   raftLayers,3
;   raftOffset,3
;   raftSeparationDistance,0.14
;   raftInfill,85
;   disableRaftBaseLayers,0
;   useSkirt,1
;   skirtExtruder,0
;   skirtLayers,1
;   skirtOutlines,4
;   skirtOffset,2.4
;   usePrimePillar,0
;   primePillarExtruder,999
;   primePillarWidth,12
;   primePillarLocation,7
;   primePillarSpeedMultiplier,1
;   useOozeShield,0
;   oozeShieldExtruder,999
;   oozeShieldOffset,2
;   oozeShieldOutlines,1
;   oozeShieldSidewallShape,1
;   oozeShieldSidewallAngle,30
;   oozeShieldSpeedMultiplier,1
;   infillExtruder,0
;   internalInfillPattern,Rectilinear
;   externalInfillPattern,Rectilinear
;   infillPercentage,15
;   outlineOverlapPercentage,20
;   infillExtrusionWidthPercentage,100
;   minInfillLength,5
;   infillLayerInterval,1
;   infillAngles,45,-45
;   overlapInfillAngles,0
;   generateSupport,1
;   supportExtruder,0
;   supportInfillPercentage,30
;   supportExtraInflation,0
;   denseSupportLayers,0
;   denseSupportInfillPercentage,70
;   supportLayerInterval,1
;   supportHorizontalPartOffset,0.3
;   supportUpperSeparationLayers,1
;   supportLowerSeparationLayers,1
;   supportType,0
;   supportGridSpacing,4
;   maxOverhangAngle,45
;   supportAngles,0
;   temperatureName,Extruder 1 Temperature,Heated Bed
;   temperatureNumber,0,0
;   temperatureSetpointCount,2,2
;   temperatureSetpointLayers,1,2,1,2
;   temperatureSetpointTemperatures,200,190,60,55
;   temperatureStabilizeAtStartup,1,1
;   temperatureHeatedBed,0,1
;   temperatureRelayBetweenLayers,0,0
;   temperatureRelayBetweenLoops,0,0
;   fanLayers,1,10
;   fanSpeeds,0,50
;   blipFanToFullPower,1
;   adjustSpeedForCooling,1
;   minSpeedLayerTime,15
;   minCoolingSpeedSlowdown,20
;   increaseFanForCooling,1
;   minFanLayerTime,30
;   maxCoolingFanSpeed,100
;   increaseFanForBridging,1
;   bridgingFanSpeed,100
;   use5D,1
;   relativeEdistances,0
;   allowEaxisZeroing,1
;   independentExtruderAxes,0
;   includeM10123,0
;   stickySupport,1
;   applyToolheadOffsets,0
;   gcodeXoffset,0
;   gcodeYoffset,0
;   gcodeZoffset,0
;   overrideMachineDefinition,0
;   machineTypeOverride,0
;   strokeXoverride,185
;   strokeYoverride,100
;   strokeZoverride,165
;   originOffsetXoverride,0
;   originOffsetYoverride,0
;   originOffsetZoverride,0
;   homeXdirOverride,-1
;   homeYdirOverride,-1
;   homeZdirOverride,-1
;   flipXoverride,1
;   flipYoverride,-1
;   flipZoverride,1
;   toolheadOffsets,0,0|0,0|0,0|0,0|0,0|0,0
;   overrideFirmwareConfiguration,0
;   firmwareTypeOverride,RepRap (Marlin/Repetier/Sprinter)
;   GPXconfigOverride,r2
;   baudRateOverride,115200
;   overridePrinterModels,0
;   printerModelsOverride
;   startingGcode,G28 ; home all axes,
;   layerChangeGcode,
;   retractionGcode,
;   toolChangeGcode,
;   endingGcode,G92 E0,G1 E-2,M104 S0 ; turn off extruder,M140 S0 ; turn off bed,G91,G1 F150,G1 Z10,G90,M84 ; disable motors
;   exportFileFormat,gcode
;   celebration,0
;   celebrationSong,Random Song
;   postProcessing,
;   defaultSpeed,3600
;   outlineUnderspeed,0.5
;   solidInfillUnderspeed,0.8
;   supportUnderspeed,0.8
;   rapidXYspeed,4800
;   rapidZspeed,1000
;   minBridgingArea,50
;   bridgingExtraInflation,0
;   bridgingExtrusionMultiplier,1
;   bridgingSpeedMultiplier,1
;   filamentDiameter,1.75
;   filamentPricePerKg,46
;   filamentDensity,1.25
;   useMinPrintHeight,0
;   minPrintHeight,0
;   useMaxPrintHeight,0
;   maxPrintHeight,0
;   useDiaphragm,0
;   diaphragmLayerInterval,20
;   robustSlicing,1
;   mergeAllIntoSolid,0
;   onlyRetractWhenCrossingOutline,1
;   retractBetweenLayers,1
;   useRetractionMinTravel,0
;   retractionMinTravel,3
;   retractWhileWiping,0
;   onlyWipeOutlines,1
;   avoidCrossingOutline,0
;   maxMovementDetourFactor,3
;   toolChangeRetractionDistance,12
;   toolChangeExtraRestartDistance,-0.5
;   toolChangeRetractionSpeed,600
;   allowThinWallGapFill,1
;   thinWallAllowedOverlapPercentage,10
;   horizontalSizeCompensation,0
G90
M82
M106 S0
M140 S60
M190 S60
M104 S200 T0
M109 S200 T0
G28 ; home all axes
G92 E0
G1 E-1.0000 F1800
G1 Z0.160 F1000
; layer 1, Z = 0.16
T0
; tool H0.200 W0.400
; skirt
G1 X38.038 Y65.895 F4800
G1 E0.0000 F540
G92 E0
G1 X38.068 Y65.876 E0.0010 F1800
G1 X41.208 Y63.994 E0.1106
G1 X41.238 Y63.977 E0.1117
G1 X41.372 Y63.905 E0.1162
G1 X41.403 Y63.890 E0.1172
G1 X44.713 Y62.324 E0.2268
G1 X44.744 Y62.311 E0.2279
G1 X44.885 Y62.252 E0.2324
G1 X44.917 Y62.240 E0.2335
G1 X48.364 Y61.006 E0.3431
G1 X48.397 Y60.996 E0.3441
G1 X48.543 Y60.951 E0.3487
G1 X48.576 Y60.942 E0.3497
G1 X52.128 Y60.053 E0.4593
G1 X52.161 Y60.045 E0.4603
G1 X52.310 Y60.015 E0.4649
G1 X52.344 Y60.009 E0.4659
G1 X55.966 Y59.472 E0.5755
G1 X56.000 Y59.468 E0.5765
G1 X56.152 Y59.453 E0.5811
G1 X56.186 Y59.451 E0.5821
G1 X59.843 Y59.271 E0.6917
G1 X59.877 Y59.270 E0.6927
G1 X60.030 Y59.270 E0.6973
G1 X60.064 Y59.271 E0.6983
G1 X63.721 Y59.451 E0.8079
G1 X63.755 Y59.453 E0.8090
G1 X63.907 Y59.468 E0.8135
G1 X63.941 Y59.472 E0.8146
G1 X67.547 Y60.007 E0.9237
G1 X67.573 Y60.012 E0.9245
G1 X67.691 Y60.034 E0.9281
G1 X67.717 Y60.039 E0.9289
G1 X68.807 Y60.288 E0.9623
G1 X68.814 Y60.289 E0.9625
G1 X68.845 Y60.297 E0.9635
G1 X68.853 Y60.299 E0.9637
G1 X72.347 Y61.174 E1.0715
G1 X72.380 Y61.183 E1.0726
G1 X72.525 Y61.227 E1.0771
G1 X72.558 Y61.238 E1.0782
G1 X76.005 Y62.472 E1.1878
G1 X76.037 Y62.484 E1.1888
G1 X76.178 Y62.542 E1.1933
G1 X76.209 Y62.556 E1.1944
G1 X79.519 Y64.122 E1.3040
G1 X79.550 Y64.137 E1.3050
G1 X79.684 Y64.209 E1.3096
G1 X79.714 Y64.226 E1.3106
G1 X82.855 Y66.108 E1.4202
G1 X82.884 Y66.126 E1.4212
G1 X83.010 Y66.211 E1.4258
G1 X83.039 Y66.231 E1.4268
G1 X85.980 Y68.412 E1.5364
G1 X86.007 Y68.433 E1.5374
G1 X86.124 Y68.530 E1.5420
G1 X86.150 Y68.552 E1.5430
G1 X88.863 Y71.011 E1.6526
G1 X88.888 Y71.035 E1.6537
G1 X88.996 Y71.143 E1.6582
G1 X89.019 Y71.167 E1.6592
G1 X91.478 Y73.880 E1.7688
G1 X91.501 Y73.906 E1.7699
G1 X91.597 Y74.024 E1.7744
G1 X91.618 Y74.051 E1.7755
G1 X93.800 Y76.992 E1.8851
G1 X93.819 Y77.020 E1.8861
G1 X93.904 Y77.147 E1.8906
G1 X93.922 Y77.176 E1.8917
G1 X95.804 Y80.315 E2.0012
G1 X95.821 Y80.345 E2.0023
G1 X95.891 Y80.477 E2.0067
G1 X95.907 Y80.507 E2.0077
G1 X97.924 Y84.755 E2.1485
G1 X97.938 Y84.787 E2.1496
G1 X97.998 Y84.930 E2.1542
G1 X98.010 Y84.962 E2.1552
G1 X98.423 Y86.117 E2.1919
G1 X99.219 Y83.892 E2.2627
G1 X99.231 Y83.860 E2.2637
G1 X99.289 Y83.719 E2.2683
G1 X99.303 Y83.688 E2.2693
G1 X100.929 Y80.250 E2.3831
G1 X100.945 Y80.219 E2.3841
G1 X101.017 Y80.085 E2.3887
G1 X101.033 Y80.055 E2.3897
G1 X102.989 Y76.793 E2.5036
G1 X103.007 Y76.764 E2.5046
G1 X103.091 Y76.638 E2.5092
G1 X103.111 Y76.610 E2.5102
G1 X105.377 Y73.555 E2.6240
G1 X105.398 Y73.528 E2.6250
G1 X105.494 Y73.410 E2.6296
G1 X105.517 Y73.384 E2.6306
G1 X108.071 Y70.567 E2.7445
G1 X108.094 Y70.542 E2.7455
G1 X108.202 Y70.434 E2.7500
G1 X108.227 Y70.410 E2.7511
G1 X111.024 Y67.875 E2.8641
G1 X111.041 Y67.860 E2.8648
G1 X111.115 Y67.797 E2.8677
G1 X111.132 Y67.783 E2.8683
G1 X112.006 Y67.086 E2.9018
G1 X112.016 Y67.079 E2.9022
G1 X112.059 Y67.045 E2.9038
G1 X112.069 Y67.038 E2.9042
G1 X115.084 Y64.802 E3.0165
G1 X115.112 Y64.782 E3.0176
G1 X115.239 Y64.698 E3.0221
G1 X115.268 Y64.679 E3.0231
G1 X118.529 Y62.724 E3.1370
G1 X118.559 Y62.707 E3.1380
G1 X118.693 Y62.635 E3.1426
G1 X118.724 Y62.620 E3.1436
G1 X122.162 Y60.994 E3.2574
G1 X122.193 Y60.980 E3.2585
G1 X122.334 Y60.922 E3.2630
G1 X122.366 Y60.910 E3.2640
G1 X125.946 Y59.628 E3.3779
G1 X125.979 Y59.618 E3.3789
G1 X126.125 Y59.573 E3.3835
G1 X126.158 Y59.564 E3.3845
G1 X129.847 Y58.640 E3.4983
G1 X129.880 Y58.633 E3.4993
G1 X130.029 Y58.603 E3.5039
G1 X130.063 Y58.597 E3.5049
G1 X133.825 Y58.039 E3.6188
G1 X133.859 Y58.035 E3.6198
G1 X134.011 Y58.020 E3.6243
G1 X134.045 Y58.018 E3.6254
G1 X137.843 Y57.831 E3.7392
G1 X137.877 Y57.830 E3.7402
G1 X138.030 Y57.830 E3.7448
G1 X138.064 Y57.831 E3.7458
G1 X141.862 Y58.018 E3.8597
G1 X141.897 Y58.020 E3.8607
G1 X142.048 Y58.035 E3.8652
G1 X142.082 Y58.039 E3.8663
G1 X145.828 Y58.595 E3.9796
G1 X145.854 Y58.599 E3.9804
G1 X145.972 Y58.621 E3.9840
G1 X145.998 Y58.627 E3.9848
G1 X147.088 Y58.875 E4.0183
G1 X147.095 Y58.877 E4.0185
G1 X147.127 Y58.885 E4.0195
G1 X147.134 Y58.887 E4.0197
G1 X150.765 Y59.796 E4.1317
G1 X150.798 Y59.805 E4.1328
G1 X150.943 Y59.849 E4.1373
G1 X150.976 Y59.860 E4.1383
G1 X154.556 Y61.141 E4.2522
G1 X154.588 Y61.154 E4.2532
G1 X154.729 Y61.212 E4.2578
G1 X154.760 Y61.226 E4.2588
G1 X158.198 Y62.852 E4.3726
G1 X158.229 Y62.867 E4.3736
G1 X158.363 Y62.939 E4.3782
G1 X158.393 Y62.956 E4.3792
G1 X161.655 Y64.911 E4.4931
G1 X161.684 Y64.929 E4.4941
G1 X161.810 Y65.014 E4.4987
G1 X161.839 Y65.034 E4.4997
G1 X164.893 Y67.299 E4.6135
G1 X164.920 Y67.320 E4.6145
G1 X165.038 Y67.417 E4.6191
G1 X165.064 Y67.439 E4.6201
G1 X167.881 Y69.993 E4.7340
G1 X167.906 Y70.017 E4.7350
G1 X168.014 Y70.124 E4.7395
G1 X168.038 Y70.149 E4.7406
G1 X170.592 Y72.967 E4.8544
G1 X170.614 Y72.993 E4.8554
G1 X170.710 Y73.110 E4.8600
G1 X170.732 Y73.138 E4.8610
G1 X172.997 Y76.192 E4.9749
G1 X173.017 Y76.220 E4.9759
G1 X173.101 Y76.347 E4.9804
G1 X173.120 Y76.376 E4.9815
G1 X175.074 Y79.636 E5.0953
G1 X175.091 Y79.666 E5.0963
G1 X175.162 Y79.798 E5.1008
G1 X175.177 Y79.828 E5.1018
G1 X177.255 Y84.204 E5.2468
G1 X177.269 Y84.236 E5.2478
G1 X177.328 Y84.379 E5.2525
G1 X177.341 Y84.411 E5.2535
G1 X178.622 Y87.993 E5.3674
G1 X178.633 Y88.025 E5.3684
G1 X178.677 Y88.171 E5.3730
G1 X178.686 Y88.204 E5.3740
G1 X179.610 Y91.893 E5.4878
G1 X179.618 Y91.927 E5.4888
G1 X179.648 Y92.076 E5.4934
G1 X179.653 Y92.110 E5.4944
G1 X180.212 Y95.871 E5.6083
G1 X180.216 Y95.906 E5.6093
G1 X180.231 Y96.057 E5.6139
G1 X180.233 Y96.091 E5.6149
G1 X180.420 Y99.890 E5.7287
G1 X180.421 Y99.924 E5.7297
G1 X180.421 Y100.076 E5.7343
G1 X180.420 Y100.110 E5.7353
G1 X180.233 Y103.906 E5.8491
G1 X180.231 Y103.940 E5.8501
G1 X180.216 Y104.091 E5.8547
G1 X180.212 Y104.125 E5.8557
G1 X179.654 Y107.884 E5.9694
G1 X179.649 Y107.918 E5.9705
G1 X179.619 Y108.067 E5.9750
G1 X179.611 Y108.101 E5.9760
G1 X178.689 Y111.786 E6.0898
G1 X178.680 Y111.820 E6.0908
G1 X178.635 Y111.965 E6.0953
G1 X178.625 Y111.998 E6.0964
G1 X177.341 Y115.588 E6.2105
G1 X177.328 Y115.621 E6.2116
G1 X177.269 Y115.764 E6.2162
G1 X177.255 Y115.796 E6.2172
G1 X175.177 Y120.172 E6.3623
G1 X175.162 Y120.202 E6.3633
G1 X175.091 Y120.334 E6.3678
G1 X175.074 Y120.364 E6.3688
G1 X173.120 Y123.624 E6.4826
G1 X173.101 Y123.653 E6.4836
G1 X173.017 Y123.780 E6.4882
G1 X172.997 Y123.808 E6.4892
G1 X170.732 Y126.862 E6.6030
G1 X170.710 Y126.889 E6.6040
G1 X170.614 Y127.007 E6.6086
G1 X170.592 Y127.033 E6.6096
G1 X168.038 Y129.851 E6.7235
G1 X168.014 Y129.876 E6.7245
G1 X167.906 Y129.983 E6.7290
G1 X167.881 Y130.007 E6.7301
G1 X165.064 Y132.561 E6.8439
G1 X165.038 Y132.583 E6.8449
G1 X164.920 Y132.680 E6.8495
G1 X164.893 Y132.701 E6.8505
G1 X161.839 Y134.966 E6.9644
G1 X161.810 Y134.986 E6.9654
G1 X161.684 Y135.071 E6.9699
G1 X161.655 Y135.089 E6.9710
G1 X158.393 Y137.044 E7.0848
G1 X158.363 Y137.061 E7.0858
G1 X158.229 Y137.133 E7.0904
G1 X158.198 Y137.148 E7.0914
G1 X154.760 Y138.774 E7.2053
G1 X154.729 Y138.788 E7.2063
G1 X154.588 Y138.846 E7.2108
G1 X154.556 Y138.859 E7.2119
G1 X150.973 Y140.141 E7.3258
G1 X150.938 Y140.152 E7.3269
G1 X150.786 Y140.198 E7.3317
G1 X150.751 Y140.208 E7.3327
G1 X146.047 Y141.363 E7.4777
G1 X146.015 Y141.370 E7.4787
G1 X145.872 Y141.398 E7.4831
G1 X145.840 Y141.403 E7.4840
G1 X142.082 Y141.961 E7.5978
G1 X142.048 Y141.965 E7.5988
G1 X141.897 Y141.980 E7.6033
G1 X141.862 Y141.982 E7.6044
G1 X138.064 Y142.169 E7.7182
G1 X138.030 Y142.170 E7.7192
G1 X137.877 Y142.170 E7.7238
G1 X137.843 Y142.169 E7.7248
G1 X134.045 Y141.982 E7.8387
G1 X134.011 Y141.980 E7.8397
G1 X133.859 Y141.965 E7.8442
G1 X133.825 Y141.961 E7.8453
G1 X130.063 Y141.403 E7.9591
G1 X130.029 Y141.397 E7.9601
G1 X129.880 Y141.367 E7.9647
G1 X129.847 Y141.360 E7.9657
G1 X126.158 Y140.436 E8.0796
G1 X126.125 Y140.427 E8.0806
G1 X125.979 Y140.382 E8.0851
G1 X125.946 Y140.372 E8.0862
G1 X122.366 Y139.090 E8.2000
G1 X122.334 Y139.078 E8.2010
G1 X122.193 Y139.020 E8.2056
G1 X122.162 Y139.006 E8.2066
G1 X118.724 Y137.380 E8.3204
G1 X118.693 Y137.365 E8.3215
G1 X118.559 Y137.293 E8.3260
G1 X118.529 Y137.276 E8.3271
G1 X115.267 Y135.321 E8.4409
G1 X115.238 Y135.302 E8.4419
G1 X115.112 Y135.218 E8.4465
G1 X115.084 Y135.198 E8.4475
G1 X112.069 Y132.962 E8.5599
G1 X112.059 Y132.954 E8.5602
G1 X112.016 Y132.921 E8.5619
G1 X112.006 Y132.914 E8.5622
G1 X111.132 Y132.217 E8.5957
G1 X111.115 Y132.203 E8.5964
G1 X111.041 Y132.140 E8.5993
G1 X111.024 Y132.125 E8.5999
G1 X108.227 Y129.590 E8.7130
G1 X108.202 Y129.566 E8.7140
G1 X108.094 Y129.458 E8.7185
G1 X108.071 Y129.433 E8.7196
G1 X105.517 Y126.616 E8.8334
G1 X105.494 Y126.590 E8.8344
G1 X105.398 Y126.472 E8.8390
G1 X105.377 Y126.445 E8.8400
G1 X103.111 Y123.390 E8.9539
G1 X103.091 Y123.362 E8.9549
G1 X103.007 Y123.236 E8.9594
G1 X102.989 Y123.207 E8.9605
G1 X101.033 Y119.945 E9.0743
G1 X101.017 Y119.915 E9.0753
G1 X100.945 Y119.781 E9.0799
G1 X100.929 Y119.750 E9.0809
G1 X99.303 Y116.312 E9.1947
G1 X99.289 Y116.281 E9.1958
G1 X99.231 Y116.140 E9.2003
G1 X99.219 Y116.108 E9.2014
G1 X98.423 Y113.884 E9.2721
G1 X98.010 Y115.038 E9.3087
G1 X97.998 Y115.070 E9.3098
G1 X97.938 Y115.213 E9.3144
G1 X97.924 Y115.245 E9.3155
G1 X95.907 Y119.493 E9.4562
G1 X95.891 Y119.523 E9.4573
G1 X95.821 Y119.655 E9.4617
G1 X95.804 Y119.685 E9.4627
G1 X93.922 Y122.824 E9.5723
G1 X93.904 Y122.853 E9.5733
G1 X93.819 Y122.980 E9.5779
G1 X93.800 Y123.008 E9.5789
G1 X91.618 Y125.949 E9.6885
G1 X91.597 Y125.976 E9.6896
G1 X91.501 Y126.094 E9.6941
G1 X91.478 Y126.120 E9.6951
G1 X89.019 Y128.833 E9.8047
G1 X88.996 Y128.857 E9.8058
G1 X88.888 Y128.965 E9.8103
G1 X88.863 Y128.989 E9.8114
G1 X86.150 Y131.448 E9.9210
G1 X86.124 Y131.470 E9.9220
G1 X86.007 Y131.567 E9.9265
G1 X85.980 Y131.588 E9.9276
G1 X83.038 Y133.769 E10.0372
G1 X83.010 Y133.789 E10.0382
G1 X82.884 Y133.874 E10.0428
G1 X82.855 Y133.892 E10.0438
G1 X79.714 Y135.774 E10.1534
G1 X79.684 Y135.791 E10.1544
G1 X79.550 Y135.863 E10.1590
G1 X79.519 Y135.878 E10.1600
G1 X76.209 Y137.444 E10.2696
G1 X76.178 Y137.458 E10.2706
G1 X76.037 Y137.516 E10.2752
G1 X76.005 Y137.528 E10.2762
G1 X72.554 Y138.763 E10.3859
G1 X72.520 Y138.774 E10.3870
G1 X72.367 Y138.820 E10.3918
G1 X72.332 Y138.830 E10.3929
G1 X67.765 Y139.951 E10.5337
G1 X67.733 Y139.958 E10.5346
G1 X67.591 Y139.985 E10.5390
G1 X67.559 Y139.991 E10.5399
G1 X63.941 Y140.528 E10.6494
G1 X63.907 Y140.532 E10.6505
G1 X63.755 Y140.547 E10.6550
G1 X63.721 Y140.549 E10.6560
G1 X60.064 Y140.729 E10.7657
G1 X60.030 Y140.730 E10.7667
G1 X59.877 Y140.730 E10.7712
G1 X59.843 Y140.729 E10.7723
G1 X56.186 Y140.549 E10.8819
G1 X56.152 Y140.547 E10.8829
G1 X56.000 Y140.532 E10.8875
G1 X55.966 Y140.528 E10.8885
G1 X52.344 Y139.990 E10.9981
G1 X52.310 Y139.985 E10.9991
G1 X52.161 Y139.955 E11.0037
G1 X52.128 Y139.947 E11.0047
